X: 1
T: Gary's Couch
M: 4/4
L: 1/8
R: reel
K: Edor
GA|:BE~E2 GE~E2|BedB AFGA|BE~E2 BE~E2|GFEF GFGA|
BE~E2 GE~E2|BedB AFGA|B2 eB fB (3gfe|
[1fedB EFGA:||[2fedB e2 (3Bcd|
|:ebbe gfeg|fedf (3efg fd|ebbe gfed|eBfB gfed|
ebbe gfeg|fedf (3efg fd|e2be gfeg|fedB e2 (3Bcd:|
